X: 11736
T: Eleanor Neary's
R: jig
M: 6/8
K: Dmixolydian
|:DFA GFD|DED CDE|=FF/F/F G^FG|A/B/cA dcA|
DFA GFD|DED CDE|=FAc GEC|EDC D2z:|
|:DFA dd/d/d|BB/B/B AFD|DFA dBA|B/^c/dB ABc|
dB/c/d cAc|BB/B/B AFD|DFA GEC|EDC D2z:|

